X: 3841
T: Black Knife, The
R: jig
M: 6/8
K: Bminor
|:B,2B B2F|AFD ECA,|B,2B BFB|Bcd dcB|
B,2B B2F|AFD ECA,|D2D E2A|1 FEC B,2A,:|2 FEC B,2e||
|:fBB Bcd|fgf ede|fBB Bcd|fgf ede|
[1 fBB Bcd|cBA ecA|fef edc|dcB Bcd:|
[2 fbf eae|dea ecA|FAd cAG|FDC B,2A,||

